X:1
T:Cartagena, LM
T:Cartagena, LM
T:Winthrop, 1888
T:Public Domain Courtesy of the Cyber Hymnal™
C:Winthrop, 1888
Z:Public Domain
Z:Courtesy of the Cyber Hymnal™
%%score ( 1 2 ) ( 3 4 )
L:1/8
Q:1/4=100
M:4/4
K:F
V:1 treble 
V:2 treble 
V:3 bass 
V:4 bass 
V:1
 [FA]3 [FA] [FB][FA][CG]F | [Fd]4 [Fc]2 [FA]F | [EG]2 [EG][FA] [GB]2 [Ec]2 | [FA]6 z2 | %4
 [^FA]3 [FA] [Fd][Fc][FB][FA] | [GB]4 D2 [DG][DF] | [CE]2 [CE][B,D] [B,C]2 [B,G]2 | [A,F]6 z2 |] %8
V:2
 x7 F | x7 F | x8 | x8 | x8 | x4 D2 x2 | x8 | x8 |] %8
V:3
 [F,C]3 [F,C] [F,D][F,C][F,B,][F,A,] | [F,B,]4 [F,A,]2 [F,C][F,A,] | %2
 [C,C]2 [B,C][A,C] [G,C]2 [C,C]2 | [F,C]6 z2 | [D,D]3 [D,D] [D,A,][D,D][D,D][D,D] | %5
 [G,D]4 [B,,B,]2 [B,,B,][B,,B,] | [C,G,]2 [C,G,][C,F,] [C,E,]2 [C,E,]2 | F,6 z2 |] %8
V:4
 x8 | x8 | x8 | x8 | x8 | x8 | x8 | F,6 x2 |] %8

